X:1
T:Title
%%score { 1 | ( 2 3 ) }
L:1/8
M:6/8
K:Eb
V:1 treble nm="Grand Piano"
V:2 bass 
V:3 bass 
V:1
 z3 z2[Q:1/4=100] [EG] | [GB]>[FA]G G>FE | [DF][EG][FA] G3 | c>BG [GB]>GE |[M:5/8] [EG] [DF]3 z | %5
[M:1/8] [EG]/[FA]/ |[M:3/4] [GB]>[FA] GG- G/F/E | [DF][EG] [FA] G3 | c>B G[DB]- [DB]/[FA]/[DF] | %9
 [B,F] [B,E]3 z2 | [DF]>[DF] [DF][DF] [DF][EG] | [FA]2 [DB] G3 | G>G GG [B,FA][B,GB] | %13
 .[B,FB]2 [B,EG] [B,DF]3 | [B,EG]>[B,FA] [EGB][EGB] [B,EG][B,GB] | [Ge][Bd] [Ac] [GB]3 | %16
 [Ac]>[GB] [EG][DB]- [DB]/[FA]/[DF] |[M:5/8] F E3 z |] %18
V:2
 z3 z2 [E,B,] | [E,B,]>[E,B,][E,B,E] [E,B,E]>[E,A,E][E,G,] | [B,,B,][B,,B,][B,,B,] [E,B,E]3 | %3
 [E,A,E]>[E,G,E][E,B,E] [E,E]>[E,B,E][E,G,] |[M:5/8] [B,,B,] [B,,B,]3 z |[M:1/8] [E,B,]/[E,B,]/ | %6
[M:3/4] [E,E]>[E,B,] [E,B,E][E,B,E]- [E,B,E]/[E,A,E]/[E,G,] | [B,,B,][B,,B,] [B,,B,] [E,B,E]3 | %8
 [E,A,E]>[E,G,E] [E,B,E][B,,B,]- [B,,B,]/[B,,B,]/[B,,A,] | [E,A,] [E,G,]3 z2 | %10
 [B,,B,]>[B,,B,] [B,,B,][B,,B,] [B,,B,][B,,B,] | [B,,B,]2 [B,,B,] [E,B,E]3 | %12
 [E,B,E]>[E,B,E] [E,B,E][E,B,E] E,E, | z A E, B,,3 | E,>E, E,E, E,E, | [E,B,]2 [E,E] [E,E]3 | %16
 [E,E]>[E,E] [E,B,][B,,B,]- [B,,B,]/[B,,B,]/[B,,A,] |[M:5/8] [E,A,B,] [E,G,B,]3 z |] %18
V:3
 x6 | x6 | x6 | x6 |[M:5/8] x5 |[M:1/8] x |[M:3/4] x6 | x6 | x6 | x6 | x6 | x6 | x6 | D,2 z2 z2 | %14
 x6 | x6 | x6 |[M:5/8] x5 |] %18

